public/svg/icon/tnb.svg

<svg xmlns="http://www.w3.org/2000/svg" xmlns:xlink="http://www.w3.org/1999/xlink" width="32" height="32" viewBox="0 0 32 32"><defs><linearGradient id="tnb-c" x1="50%" x2="50%" y1="0%" y2="100%"><stop offset="0%" stop-color="#FFF" stop-opacity=".5"/><stop offset="100%" stop-opacity=".5"/></linearGradient><circle id="tnb-b" cx="16" cy="15" r="15"/><filter id="tnb-a" width="111.7%" height="111.7%" x="-5.8%" y="-4.2%" filterUnits="objectBoundingBox"><feOffset dy=".5" in="SourceAlpha" result="shadowOffsetOuter1"/><feGaussianBlur in="shadowOffsetOuter1" result="shadowBlurOuter1" stdDeviation=".5"/><feComposite in="shadowBlurOuter1" in2="SourceAlpha" operator="out" result="shadowBlurOuter1"/><feColorMatrix in="shadowBlurOuter1" values="0 0 0 0 0 0 0 0 0 0 0 0 0 0 0 0 0 0 0.199473505 0"/></filter><path id="tnb-e" d="M15.5977558,10.8571429 L15.6006601,10.8571429 L15.570165,10.9864286 L15.310231,12.2142857 L15.2811881,12.2142857 L13.5676568,19.5 L11.3894389,19.5 L13.1356436,12.2142857 L10.2037624,12.2142857 L8.55775578,19.5 L6.16171617,19.5 L8.33993399,10.5 L8.99339934,10.5 L10.5907591,10.5 L15.6732673,10.5 L15.5977558,10.8571429 Z M19.7392739,10.5 L23.369637,10.5 C26.4917492,10.6428571 26.2013201,12.7142857 26.2013201,12.7142857 L27,12.7142857 L26.709571,13.5714286 L25.9834983,13.5714286 C25.7656766,14.3571429 24.3135314,14.7857143 24.3135314,14.7857143 C25.9834983,15 25.9108911,16.2857143 25.9108911,16.2857143 L26.709571,16.2857143 L26.4917492,17.1428571 L25.8382838,17.1428571 C25.6712871,18.3335714 24.6163036,18.9107143 23.7493729,19.1864286 C23.2250907,19.3498902 22.6780266,19.4315938 22.1280528,19.4285714 L17.5610561,19.4286523 L19.7392739,10.5 Z M7.32343234,12.2142857 L5,12.2142857 L5.43564356,10.5 L7.75907591,10.5 L7.32343234,12.2142857 Z M17.2706271,18.5 L15.3828383,14.0714286 L16.1815182,10.6428571 L18.0693069,14.8571429 L17.2706271,18.5 Z M22.8250825,14.0714286 C23.0851063,14.0716183 23.3345355,13.9700851 23.5184001,13.7892053 C23.7022647,13.6083255 23.8054734,13.3629454 23.8052805,13.1071429 C23.8054734,12.8513403 23.7022647,12.6059602 23.5184001,12.4250804 C23.3345355,12.2442006 23.0851063,12.1426674 22.8250825,12.1428571 L21.4092409,12.1428571 L20.9735974,14.0714288 L22.8250825,14.0714286 Z M22.3364356,17.7857143 C22.9869967,17.7857143 23.5148515,17.29 23.5148515,16.6785714 C23.5148515,16.0671429 22.989901,15.5714286 22.3364356,15.5714286 L20.6337954,15.5714286 L20.110297,17.7857143 L22.3364356,17.7857143 Z"/><filter id="tnb-d" width="115.9%" height="138.9%" x="-8%" y="-13.9%" filterUnits="objectBoundingBox"><feOffset dy=".5" in="SourceAlpha" result="shadowOffsetOuter1"/><feGaussianBlur in="shadowOffsetOuter1" result="shadowBlurOuter1" stdDeviation=".5"/><feColorMatrix in="shadowBlurOuter1" values="0 0 0 0 0 0 0 0 0 0 0 0 0 0 0 0 0 0 0.204257246 0"/></filter></defs><g fill="none" fill-rule="evenodd"><use fill="#000" filter="url(#tnb-a)" xlink:href="#tnb-b"/><use fill="#FFC04E" xlink:href="#tnb-b"/><use fill="url(#tnb-c)" style="mix-blend-mode:soft-light" xlink:href="#tnb-b"/><circle cx="16" cy="15" r="14.5" stroke="#000" stroke-opacity=".097"/><g fill-rule="nonzero"><use fill="#000" filter="url(#tnb-d)" xlink:href="#tnb-e"/><use fill="#FFF" fill-rule="evenodd" xlink:href="#tnb-e"/></g></g></svg>

<svg xmlns="http://www.w3.org/2000/svg" xmlns:xlink="http://www.w3.org/1999/xlink" width="32" height="32" viewBox="0 0 32 32"><defs><filter id="a" width="111.7%" height="111.7%" x="-5.8%" y="-4.2%" filterUnits="objectBoundingBox"><feOffset dy=".5" in="SourceAlpha" result="shadowOffsetOuter1"/><feGaussianBlur in="shadowOffsetOuter1" result="shadowBlurOuter1" stdDeviation=".5"/><feComposite in="shadowBlurOuter1" in2="SourceAlpha" operator="out" result="shadowBlurOuter1"/><feColorMatrix in="shadowBlurOuter1" values="0 0 0 0 0 0 0 0 0 0 0 0 0 0 0 0 0 0 0.199473505 0"/></filter><filter id="d" width="115.9%" height="138.9%" x="-8%" y="-13.9%" filterUnits="objectBoundingBox"><feOffset dy=".5" in="SourceAlpha" result="shadowOffsetOuter1"/><feGaussianBlur in="shadowOffsetOuter1" result="shadowBlurOuter1" stdDeviation=".5"/><feColorMatrix in="shadowBlurOuter1" values="0 0 0 0 0 0 0 0 0 0 0 0 0 0 0 0 0 0 0.204257246 0"/></filter><linearGradient id="c" x1="50%" x2="50%" y1="0%" y2="100%"><stop offset="0%" stop-color="#FFF" stop-opacity=".5"/><stop offset="100%" stop-opacity=".5"/></linearGradient><circle id="b" cx="16" cy="15" r="15"/><path id="e" d="M15.598 10.857h.003l-.03.13-.26 1.227h-.03L13.568 19.5h-2.179l1.747-7.286h-2.932L8.558 19.5H6.162l2.178-9h7.333l-.075.357zm4.141-.357h3.63c3.123.143 2.832 2.214 2.832 2.214H27l-.29.857h-.727c-.217.786-1.67 1.215-1.67 1.215 1.67.214 1.598 1.5 1.598 1.5h.799l-.218.857h-.654c-.167 1.19-1.222 1.768-2.089 2.043a5.35 5.35 0 01-1.62.243H17.56l2.18-8.929zM7.323 12.214H5l.436-1.714h2.323l-.436 1.714zm9.948 6.286l-1.888-4.429.799-3.428 1.887 4.214-.798 3.643zm5.554-4.429c.26 0 .51-.1.693-.282a.956.956 0 000-1.364.988.988 0 00-.693-.282H21.41l-.435 1.928h1.851zm-.489 3.715c.651 0 1.179-.496 1.179-1.107 0-.612-.525-1.108-1.179-1.108h-1.702l-.524 2.215h2.226z"/></defs><g fill="none" fill-rule="evenodd"><use fill="#000" filter="url(#a)" xlink:href="#b"/><use fill="#FFC04E" xlink:href="#b"/><use fill="url(#c)" style="mix-blend-mode:soft-light" xlink:href="#b"/><circle cx="16" cy="15" r="14.5" stroke="#000" stroke-opacity=".097"/><g fill-rule="nonzero"><use fill="#000" filter="url(#d)" xlink:href="#e"/><use fill="#FFF" fill-rule="evenodd" xlink:href="#e"/></g></g></svg>
